svg/emoji_u1f948.svg

<svg width="128" height="128" xmlns="http://www.w3.org/2000/svg" xmlns:xlink="http://www.w3.org/1999/xlink" width="512px" height="512px"><font horiz-adv-x="2048"><font-face font-family="Roboto-Bold" underline-position="-150" underline-thickness="100" units-per-em="2048"/><glyph d="M1097 0H99v198l471 502c65 71 113 132 144 185s46 103 46 150c0 65-16 116-49 153s-79 55-140 55c-65 0-117-22-154-67-38-45-57-105-57-178H70c0 89 21 170 64 243 42 73 102 131 179 173 77 41 165 62 263 62 150 0 267-36 350-108s124-174 124-305c0-72-19-145-56-220S893 681 802 582L471 233h626z" horiz-adv-x="1175" unicode="2"/></font><defs><path id="a" d="M3.93 4.01h120.55v58.36H3.93z"/></defs><clipPath id="b"><use xlink:href="#a" overflow="visible"/></clipPath><linearGradient id="c" gradientUnits="userSpaceOnUse" x1="79.154" x2="79.154" y1="-8.667" y2="41.338"><stop offset=".136" stop-color="#1e88e5"/><stop offset=".938" stop-color="#1565c0"/></linearGradient><path clip-path="url(#b)" fill="url(#c)" d="M48.44 46.18h31.43l30-48.43H78.44z"/><g opacity=".2" clip-path="url(#b)"><path d="M104.23 1L78.2 43H53.85L80.11 1H104m5.87-3H78.44l-30 48h31.42l30.01-48z" fill="#424242"/></g><path d="M82 34H46c-4.42 0-8 3.58-8 8v16.04c0 2.17 1.8 3.95 4.02 3.96h.01c2.23-.01 4.97-1.75 4.97-3.96V48c0-1.1.9-2 2-2h30c1.1 0 2 .9 2 2v9.93c0 1.98 2.35 3.68 4.22 4.04.26.05.52.08.78.08 2.21 0 4-1.79 4-4V42c0-4.42-3.58-8-8-8z" clip-path="url(#b)" fill="#bdbdbd"/><g opacity=".2" clip-path="url(#b)"><path d="M82 36c3.31 0 6 2.69 6 6v16.04A2.006 2.006 0 0 1 85.59 60c-1.18-.23-2.59-1.35-2.59-2.07V48c0-2.21-1.79-4-4-4H49c-2.21 0-4 1.79-4 4v10.04c0 .88-1.64 1.96-2.97 1.96-1.12-.01-2.03-.89-2.03-1.96V42c0-3.31 2.69-6 6-6h36m0-2H46c-4.42 0-8 3.58-8 8v16.04c0 2.17 1.8 3.95 4.02 3.96h.01c2.23-.01 4.97-1.75 4.97-3.96V48c0-1.1.9-2 2-2h30c1.1 0 2 .9 2 2v9.93c0 1.98 2.35 3.68 4.22 4.04.26.05.52.08.78.08 2.21 0 4-1.79 4-4V42c0-4.42-3.58-8-8-8z" fill="#424242"/></g><linearGradient id="d" gradientUnits="userSpaceOnUse" x1="34.81" x2="66.143" y1="-.925" y2="49.075"><stop offset=".136" stop-color="#64b5f6"/><stop offset=".946" stop-color="#2196f3"/></linearGradient><path clip-path="url(#b)" fill="url(#d)" d="M79.87 46.18H48.44l-30-48.43h31.43z"/><g opacity=".2" clip-path="url(#b)"><path d="M48.1 1l26.35 42H50.1L23.86 1H48m1.87-3H18.44l30 48h31.42L49.87-2z" fill="#424242"/></g><g><radialGradient id="e" cx="43" cy="63.25" gradientUnits="userSpaceOnUse" r="69.492"><stop offset=".283" stop-color="#eee"/><stop offset="1" stop-color="#bdbdbd"/></radialGradient><circle cx="64" cy="86" r="38" fill="url(#e)"/><path d="M64 51c19.3 0 35 15.7 35 35s-15.7 35-35 35-35-15.7-35-35 15.7-35 35-35m0-3c-20.99 0-38 17.01-38 38s17.01 38 38 38 38-17.01 38-38-17.01-38-38-38z" fill="#424242" opacity=".2"/><path fill="none" d="M47.3 63.59h33.4v44.4H47.3z"/><text transform="translate(47.298 107.094)" fill="#757575" font-family="Roboto-Bold" font-size="58">2</text></g></svg>

<svg width="128" height="128" style="enable-background:new 0 0 128 128;" xmlns="http://www.w3.org/2000/svg" xmlns:xlink="http://www.w3.org/1999/xlink">
  <font horiz-adv-x="2048">
    <font-face font-family="Roboto-Bold" underline-position="-150" underline-thickness="100" units-per-em="2048"/>
    <missing-glyph d="M808,0l-708,0l0,1456l708,0M754,84l0,1287l-274,-643M154,1359l0,-1263l268,632M194,54l515,0l-258,606M451,796l258,606l-515,0z" horiz-adv-x="908"/>
    <glyph d="M1097,0l-998,0l0,198l471,502C635,771 683,832 714,885C745,938 760,988 760,1035C760,1100 744,1151 711,1188C678,1225 632,1243 571,1243C506,1243 454,1221 417,1176C379,1131 360,1071 360,998l-290,0C70,1087 91,1168 134,1241C176,1314 236,1372 313,1414C390,1455 478,1476 576,1476C726,1476 843,1440 926,1368C1009,1296 1050,1194 1050,1063C1050,991 1031,918 994,843C957,768 893,681 802,582l-331,-349l626,0z" horiz-adv-x="1175" unicode="2"/>
  </font>
  <g id="图层_3">
    <g>
      <defs>
        <rect id="SVGID_1_" height="58.36" width="120.55" x="3.93" y="4.01"/>
      </defs>
      <clipPath id="SVGID_3_">
        <use style="overflow:visible;" xlink:href="#SVGID_1_"/>
      </clipPath>
      <linearGradient id="SVGID_4_" gradientUnits="userSpaceOnUse" x1="79.1543" x2="79.1543" y1="-8.6667" y2="41.3378">
        <stop offset="0.1355" style="stop-color:#1E88E5"/>
        <stop offset="0.938" style="stop-color:#1565C0"/>
      </linearGradient>
      <polygon points="48.44,46.18 79.87,46.18 109.87,-2.25 78.44,-2.25 " style="clip-path:url(#SVGID_3_);fill:url(#SVGID_4_);"/>
      <g style="opacity:0.2;clip-path:url(#SVGID_3_);">
        <path d="M104.23,1L78.2,43h-7.34h-11h-2.42h-3.59L80.11,1H104 M109.87-2H78.44l-30,48h9h2.42h11h9 L109.87-2L109.87-2z" style="fill:#424242;"/>
      </g>
      <path d="M82,34H46c-4.42,0-8,3.58-8,8v16.04c0,2.17,1.8,3.95,4.02,3.96v0l0.01,0 c2.23-0.01,4.97-1.75,4.97-3.96V48c0-1.1,0.9-2,2-2h30c1.1,0,2,0.9,2,2v9.93c0,1.98,2.35,3.68,4.22,4.04 c0.26,0.05,0.52,0.08,0.78,0.08c2.21,0,4-1.79,4-4V42C90,37.58,86.42,34,82,34z" style="clip-path:url(#SVGID_3_);fill:#BDBDBD;"/>
      <g style="opacity:0.2;clip-path:url(#SVGID_3_);">
        <path d="M82,36c3.31,0,6,2.69,6,6v16.04c0,1.1-0.9,2-2,2c-0.13,0-0.27-0.01-0.41-0.04 C84.41,59.77,83,58.65,83,57.93V48c0-2.21-1.79-4-4-4H49c-2.21,0-4,1.79-4,4v10.04c0,0.88-1.64,1.96-2.97,1.96 C40.91,59.99,40,59.11,40,58.04V42c0-3.31,2.69-6,6-6H82 M82,34H46c-4.42,0-8,3.58-8,8v16.04c0,2.17,1.8,3.95,4.02,3.96v0l0.01,0 c2.23-0.01,4.97-1.75,4.97-3.96V48c0-1.1,0.9-2,2-2h30c1.1,0,2,0.9,2,2v9.93c0,1.98,2.35,3.68,4.22,4.04 c0.26,0.05,0.52,0.08,0.78,0.08c2.21,0,4-1.79,4-4V42C90,37.58,86.42,34,82,34L82,34z" style="fill:#424242;"/>
      </g>
      <linearGradient id="SVGID_5_" gradientUnits="userSpaceOnUse" x1="34.81" x2="66.1434" y1="-0.9254" y2="49.0746">
        <stop offset="0.1355" style="stop-color:#64B5F6"/>
        <stop offset="0.9462" style="stop-color:#2196F3"/>
      </linearGradient>
      <polygon points="79.87,46.18 48.44,46.18 18.44,-2.25 49.87,-2.25 " style="clip-path:url(#SVGID_3_);fill:url(#SVGID_5_);"/>
      <g style="opacity:0.2;clip-path:url(#SVGID_3_);">
        <path d="M48.1,1l26.35,42h-3.59h-2.42h-11h-7.34L23.86,1H48 M49.87-2H18.44l30,48h9h11h2.42h9L49.87-2 L49.87-2z" style="fill:#424242;"/>
      </g>
    </g>
    <g>
      <g>
        <radialGradient id="SVGID_6_" cx="43" cy="63.25" gradientUnits="userSpaceOnUse" r="69.4915">
          <stop offset="0.2835" style="stop-color:#EEEEEE"/>
          <stop offset="1" style="stop-color:#BDBDBD"/>
        </radialGradient>
        <circle cx="64" cy="86" r="38" style="fill:url(#SVGID_6_);"/>
      </g>
      <g style="opacity:0.2;">
        <path d="M64,51c19.3,0,35,15.7,35,35c0,19.3-15.7,35-35,35s-35-15.7-35-35C29,66.7,44.7,51,64,51 M64,48 c-20.99,0-38,17.01-38,38c0,20.99,17.01,38,38,38c20.99,0,38-17.01,38-38C102,65.01,84.99,48,64,48L64,48z" style="fill:#424242;"/>
      </g>
      <rect height="44.4" style="fill:none;" width="33.4" x="47.3" y="63.59"/>
      <text style="fill:#757575; font-family:'Roboto-Bold'; font-size:58px;" transform="matrix(1 0 0 1 47.2977 107.0945)">
2
      </text>
    </g>
  </g>
  <g id="Layer_2_x5F_复制" style="display:none;">
    <g style="display:inline;opacity:0.3;">
      <g style="opacity:0.6;">
        <circle cx="64" cy="64" r="28" style="opacity:0.61;fill:none;stroke:#000000;stroke-width:0.2625;stroke-miterlimit:10;"/>
        <line style="opacity:0.61;fill:none;stroke:#000000;stroke-width:0.25;stroke-miterlimit:10;" x1="84" x2="84" y1="0" y2="128"/>
        <line style="opacity:0.61;fill:none;stroke:#000000;stroke-width:0.25;stroke-miterlimit:10;" x1="44" x2="44" y1="0" y2="128"/>
        <line style="opacity:0.61;fill:none;stroke:#000000;stroke-width:0.25;stroke-miterlimit:10;" x1="64" x2="64" y1="0" y2="128"/>
        <line style="opacity:0.61;fill:none;stroke:#000000;stroke-width:0.25;stroke-miterlimit:10;" x1="128" x2="0" y1="64" y2="64"/>
        <line style="opacity:0.61;fill:none;stroke:#000000;stroke-width:0.25;stroke-miterlimit:10;" x1="128" x2="0" y1="44" y2="44"/>
        <line style="opacity:0.61;fill:none;stroke:#000000;stroke-width:0.25;stroke-miterlimit:10;" x1="128" x2="0" y1="83.75" y2="83.75"/>
        <line style="opacity:0.61;fill:none;stroke:#000000;stroke-width:0.25;stroke-miterlimit:10;" x1="128" x2="0" y1="128" y2="0"/>
        <line style="opacity:0.61;fill:none;stroke:#000000;stroke-width:0.25;stroke-miterlimit:10;" x1="0" x2="128" y1="128" y2="0"/>
        <g style="opacity:0.61;">
          <path d="M64,4.26c32.94,0,59.74,26.8,59.74,59.74S96.94,123.74,64,123.74S4.26,96.94,4.26,64S31.06,4.26,64,4.26 M64,4 C30.86,4,4,30.86,4,64c0,33.14,26.86,60,60,60c33.14,0,60-26.86,60-60C124,30.86,97.14,4,64,4L64,4z"/>
        </g>
        <path d="M107.97,115.97H20.03 c-4.42,0-8.03-3.61-8.03-8.03V20.03c0-4.42,3.61-8.03,8.03-8.03h87.94c4.42,0,8.03,3.61,8.03,8.03v87.91 C116,112.36,112.39,115.97,107.97,115.97z" style="opacity:0.61;fill:none;stroke:#000000;stroke-width:0.2578;stroke-miterlimit:10;"/>
        <path d="M99.75,124H28 c-4.4,0-8-3.6-8-8V12c0-4.4,3.6-8,8-8h71.75c4.4,0,8,3.6,8,8v104C107.75,120.4,104.15,124,99.75,124z" style="opacity:0.61;fill:none;stroke:#000000;stroke-width:0.2567;stroke-miterlimit:10;"/>
        <path d="M113.77,108H14.23 C8.6,108,4,103.4,4,97.77V30.28c0-5.63,4.6-10.23,10.23-10.23h99.54c5.63,0,10.23,4.6,10.23,10.23v67.48 C124,103.4,119.4,108,113.77,108z" style="opacity:0.61;fill:none;stroke:#000000;stroke-width:0.2627;stroke-miterlimit:10;"/>
      </g>
      <g>
        <g style="opacity:0.2;">
          <defs>
            <rect id="SVGID_2_" height="128" style="opacity:0.2;" width="128"/>
          </defs>
          <clipPath id="SVGID_7_">
            <use style="overflow:visible;" xlink:href="#SVGID_2_"/>
          </clipPath>
          <g style="clip-path:url(#SVGID_7_);">
            <g>
              <line style="fill:none;stroke:#000000;stroke-width:0.25;stroke-miterlimit:10;" x1="-28" x2="-28" y1="160" y2="-32"/>
              <line style="fill:none;stroke:#000000;stroke-width:0.25;stroke-miterlimit:10;" x1="-24" x2="-24" y1="160" y2="-32"/>
              <line style="fill:none;stroke:#000000;stroke-width:0.25;stroke-miterlimit:10;" x1="-20" x2="-20" y1="160" y2="-32"/>
              <line style="fill:none;stroke:#000000;stroke-width:0.25;stroke-miterlimit:10;" x1="-16" x2="-16" y1="160" y2="-32"/>
              <line style="fill:none;stroke:#000000;stroke-width:0.25;stroke-miterlimit:10;" x1="-12" x2="-12" y1="160" y2="-32"/>
              <line style="fill:none;stroke:#000000;stroke-width:0.25;stroke-miterlimit:10;" x1="-8" x2="-8" y1="160" y2="-32"/>
              <line style="fill:none;stroke:#000000;stroke-width:0.25;stroke-miterlimit:10;" x1="-4" x2="-4" y1="160" y2="-32"/>
              <line style="fill:none;stroke:#000000;stroke-width:0.25;stroke-miterlimit:10;" x1="0" x2="0" y1="160" y2="-32"/>
              <line style="fill:none;stroke:#000000;stroke-width:0.25;stroke-miterlimit:10;" x1="4" x2="4" y1="160" y2="-32"/>
              <line style="fill:none;stroke:#000000;stroke-width:0.25;stroke-miterlimit:10;" x1="8" x2="8" y1="160" y2="-32"/>
              <line style="fill:none;stroke:#000000;stroke-width:0.25;stroke-miterlimit:10;" x1="12" x2="12" y1="160" y2="-32"/>
              <line style="fill:none;stroke:#000000;stroke-width:0.25;stroke-miterlimit:10;" x1="16" x2="16" y1="160" y2="-32"/>
              <line style="fill:none;stroke:#000000;stroke-width:0.25;stroke-miterlimit:10;" x1="20" x2="20" y1="160" y2="-32"/>
              <line style="fill:none;stroke:#000000;stroke-width:0.25;stroke-miterlimit:10;" x1="24" x2="24" y1="160" y2="-32"/>
              <line style="fill:none;stroke:#000000;stroke-width:0.25;stroke-miterlimit:10;" x1="28" x2="28" y1="160" y2="-32"/>
              <line style="fill:none;stroke:#000000;stroke-width:0.25;stroke-miterlimit:10;" x1="32" x2="32" y1="160" y2="-32"/>
              <line style="fill:none;stroke:#000000;stroke-width:0.25;stroke-miterlimit:10;" x1="36" x2="36" y1="160" y2="-32"/>
              <line style="fill:none;stroke:#000000;stroke-width:0.25;stroke-miterlimit:10;" x1="40" x2="40" y1="160" y2="-32"/>
              <line style="fill:none;stroke:#000000;stroke-width:0.25;stroke-miterlimit:10;" x1="44" x2="44" y1="160" y2="-32"/>
              <line style="fill:none;stroke:#000000;stroke-width:0.25;stroke-miterlimit:10;" x1="48" x2="48" y1="160" y2="-32"/>
              <line style="fill:none;stroke:#000000;stroke-width:0.25;stroke-miterlimit:10;" x1="52" x2="52" y1="160" y2="-32"/>
              <line style="fill:none;stroke:#000000;stroke-width:0.25;stroke-miterlimit:10;" x1="56" x2="56" y1="160" y2="-32"/>
              <line style="fill:none;stroke:#000000;stroke-width:0.25;stroke-miterlimit:10;" x1="60" x2="60" y1="160" y2="-32"/>
              <line style="fill:none;stroke:#000000;stroke-width:0.25;stroke-miterlimit:10;" x1="64" x2="64" y1="160" y2="-32"/>
              <line style="fill:none;stroke:#000000;stroke-width:0.25;stroke-miterlimit:10;" x1="68" x2="68" y1="160" y2="-32"/>
              <line style="fill:none;stroke:#000000;stroke-width:0.25;stroke-miterlimit:10;" x1="72" x2="72" y1="160" y2="-32"/>
              <line style="fill:none;stroke:#000000;stroke-width:0.25;stroke-miterlimit:10;" x1="76" x2="76" y1="160" y2="-32"/>
              <line style="fill:none;stroke:#000000;stroke-width:0.25;stroke-miterlimit:10;" x1="80" x2="80" y1="160" y2="-32"/>
              <line style="fill:none;stroke:#000000;stroke-width:0.25;stroke-miterlimit:10;" x1="84" x2="84" y1="160" y2="-32"/>
              <line style="fill:none;stroke:#000000;stroke-width:0.25;stroke-miterlimit:10;" x1="88" x2="88" y1="160" y2="-32"/>
              <line style="fill:none;stroke:#000000;stroke-width:0.25;stroke-miterlimit:10;" x1="92" x2="92" y1="160" y2="-32"/>
              <line style="fill:none;stroke:#000000;stroke-width:0.25;stroke-miterlimit:10;" x1="96" x2="96" y1="160" y2="-32"/>
              <line style="fill:none;stroke:#000000;stroke-width:0.25;stroke-miterlimit:10;" x1="100" x2="100" y1="160" y2="-32"/>
              <line style="fill:none;stroke:#000000;stroke-width:0.25;stroke-miterlimit:10;" x1="104" x2="104" y1="160" y2="-32"/>
              <line style="fill:none;stroke:#000000;stroke-width:0.25;stroke-miterlimit:10;" x1="108" x2="108" y1="160" y2="-32"/>
              <line style="fill:none;stroke:#000000;stroke-width:0.25;stroke-miterlimit:10;" x1="112" x2="112" y1="160" y2="-32"/>
              <line style="fill:none;stroke:#000000;stroke-width:0.25;stroke-miterlimit:10;" x1="116" x2="116" y1="160" y2="-32"/>
              <line style="fill:none;stroke:#000000;stroke-width:0.25;stroke-miterlimit:10;" x1="120" x2="120" y1="160" y2="-32"/>
              <line style="fill:none;stroke:#000000;stroke-width:0.25;stroke-miterlimit:10;" x1="124" x2="124" y1="160" y2="-32"/>
              <line style="fill:none;stroke:#000000;stroke-width:0.25;stroke-miterlimit:10;" x1="128" x2="128" y1="160" y2="-32"/>
              <line style="fill:none;stroke:#000000;stroke-width:0.25;stroke-miterlimit:10;" x1="132" x2="132" y1="160" y2="-32"/>
              <line style="fill:none;stroke:#000000;stroke-width:0.25;stroke-miterlimit:10;" x1="136" x2="136" y1="160" y2="-32"/>
              <line style="fill:none;stroke:#000000;stroke-width:0.25;stroke-miterlimit:10;" x1="137" x2="137" y1="166.05" y2="-25.95"/>
              <line style="fill:none;stroke:#000000;stroke-width:0.25;stroke-miterlimit:10;" x1="144" x2="144" y1="160" y2="-32"/>
              <line style="fill:none;stroke:#000000;stroke-width:0.25;stroke-miterlimit:10;" x1="148" x2="148" y1="160" y2="-32"/>
              <line style="fill:none;stroke:#000000;stroke-width:0.25;stroke-miterlimit:10;" x1="152" x2="152" y1="160" y2="-32"/>
              <line style="fill:none;stroke:#000000;stroke-width:0.25;stroke-miterlimit:10;" x1="156" x2="156" y1="160" y2="-32"/>
            </g>
            <g>
              <line style="fill:none;stroke:#000000;stroke-width:0.25;stroke-miterlimit:10;" x1="-32" x2="160" y1="-28" y2="-28"/>
              <line style="fill:none;stroke:#000000;stroke-width:0.25;stroke-miterlimit:10;" x1="-32" x2="160" y1="-24" y2="-24"/>
              <line style="fill:none;stroke:#000000;stroke-width:0.25;stroke-miterlimit:10;" x1="-32" x2="160" y1="-20" y2="-20"/>
              <line style="fill:none;stroke:#000000;stroke-width:0.25;stroke-miterlimit:10;" x1="-32" x2="160" y1="-16" y2="-16"/>
              <line style="fill:none;stroke:#000000;stroke-width:0.25;stroke-miterlimit:10;" x1="-32" x2="160" y1="-12" y2="-12"/>
              <line style="fill:none;stroke:#000000;stroke-width:0.25;stroke-miterlimit:10;" x1="-32" x2="160" y1="-8" y2="-8"/>
              <line style="fill:none;stroke:#000000;stroke-width:0.25;stroke-miterlimit:10;" x1="-32" x2="160" y1="-4" y2="-4"/>
              <line style="fill:none;stroke:#000000;stroke-width:0.25;stroke-miterlimit:10;" x1="-32" x2="160" y1="0" y2="0"/>
              <line style="fill:none;stroke:#000000;stroke-width:0.25;stroke-miterlimit:10;" x1="-32" x2="160" y1="4" y2="4"/>
              <line style="fill:none;stroke:#000000;stroke-width:0.25;stroke-miterlimit:10;" x1="-32" x2="160" y1="8" y2="8"/>
              <line style="fill:none;stroke:#000000;stroke-width:0.25;stroke-miterlimit:10;" x1="-32" x2="160" y1="12" y2="12"/>
              <line style="fill:none;stroke:#000000;stroke-width:0.25;stroke-miterlimit:10;" x1="-32" x2="160" y1="16" y2="16"/>
              <line style="fill:none;stroke:#000000;stroke-width:0.25;stroke-miterlimit:10;" x1="-32" x2="160" y1="20" y2="20"/>
              <line style="fill:none;stroke:#000000;stroke-width:0.25;stroke-miterlimit:10;" x1="-32" x2="160" y1="24" y2="24"/>
              <line style="fill:none;stroke:#000000;stroke-width:0.25;stroke-miterlimit:10;" x1="-32" x2="160" y1="28" y2="28"/>
              <line style="fill:none;stroke:#000000;stroke-width:0.25;stroke-miterlimit:10;" x1="-32" x2="160" y1="32" y2="32"/>
              <line style="fill:none;stroke:#000000;stroke-width:0.25;stroke-miterlimit:10;" x1="-32" x2="160" y1="36" y2="36"/>
              <line style="fill:none;stroke:#000000;stroke-width:0.25;stroke-miterlimit:10;" x1="-32" x2="160" y1="40" y2="40"/>
              <line style="fill:none;stroke:#000000;stroke-width:0.25;stroke-miterlimit:10;" x1="-32" x2="160" y1="44" y2="44"/>
              <line style="fill:none;stroke:#000000;stroke-width:0.25;stroke-miterlimit:10;" x1="-32" x2="160" y1="48" y2="48"/>
              <line style="fill:none;stroke:#000000;stroke-width:0.25;stroke-miterlimit:10;" x1="-32" x2="160" y1="52" y2="52"/>
              <line style="fill:none;stroke:#000000;stroke-width:0.25;stroke-miterlimit:10;" x1="-32" x2="160" y1="56" y2="56"/>
              <line style="fill:none;stroke:#000000;stroke-width:0.25;stroke-miterlimit:10;" x1="-32" x2="160" y1="60" y2="60"/>
              <line style="fill:none;stroke:#000000;stroke-width:0.25;stroke-miterlimit:10;" x1="-32" x2="160" y1="64" y2="64"/>
              <line style="fill:none;stroke:#000000;stroke-width:0.25;stroke-miterlimit:10;" x1="-32" x2="160" y1="68" y2="68"/>
              <line style="fill:none;stroke:#000000;stroke-width:0.25;stroke-miterlimit:10;" x1="-32" x2="160" y1="72" y2="72"/>
              <line style="fill:none;stroke:#000000;stroke-width:0.25;stroke-miterlimit:10;" x1="-32" x2="160" y1="76" y2="76"/>
              <line style="fill:none;stroke:#000000;stroke-width:0.25;stroke-miterlimit:10;" x1="-32" x2="160" y1="80" y2="80"/>
              <line style="fill:none;stroke:#000000;stroke-width:0.25;stroke-miterlimit:10;" x1="-32" x2="160" y1="84" y2="84"/>
              <line style="fill:none;stroke:#000000;stroke-width:0.25;stroke-miterlimit:10;" x1="-32" x2="160" y1="88" y2="88"/>
              <line style="fill:none;stroke:#000000;stroke-width:0.25;stroke-miterlimit:10;" x1="-32" x2="160" y1="92" y2="92"/>
              <line style="fill:none;stroke:#000000;stroke-width:0.25;stroke-miterlimit:10;" x1="-32" x2="160" y1="96" y2="96"/>
              <line style="fill:none;stroke:#000000;stroke-width:0.25;stroke-miterlimit:10;" x1="-32" x2="160" y1="100" y2="100"/>
              <line style="fill:none;stroke:#000000;stroke-width:0.25;stroke-miterlimit:10;" x1="-32" x2="160" y1="104" y2="104"/>
              <line style="fill:none;stroke:#000000;stroke-width:0.25;stroke-miterlimit:10;" x1="-32" x2="160" y1="108" y2="108"/>
              <line style="fill:none;stroke:#000000;stroke-width:0.25;stroke-miterlimit:10;" x1="-32" x2="160" y1="112" y2="112"/>
              <line style="fill:none;stroke:#000000;stroke-width:0.25;stroke-miterlimit:10;" x1="-32" x2="160" y1="116" y2="116"/>
              <line style="fill:none;stroke:#000000;stroke-width:0.25;stroke-miterlimit:10;" x1="-32" x2="160" y1="120" y2="120"/>
              <line style="fill:none;stroke:#000000;stroke-width:0.25;stroke-miterlimit:10;" x1="-32" x2="160" y1="124" y2="124"/>
              <line style="fill:none;stroke:#000000;stroke-width:0.25;stroke-miterlimit:10;" x1="-32" x2="160" y1="128" y2="128"/>
              <line style="fill:none;stroke:#000000;stroke-width:0.25;stroke-miterlimit:10;" x1="-32" x2="160" y1="132" y2="132"/>
              <line style="fill:none;stroke:#000000;stroke-width:0.25;stroke-miterlimit:10;" x1="-32" x2="160" y1="136" y2="136"/>
              <line style="fill:none;stroke:#000000;stroke-width:0.25;stroke-miterlimit:10;" x1="-32" x2="160" y1="140" y2="140"/>
              <line style="fill:none;stroke:#000000;stroke-width:0.25;stroke-miterlimit:10;" x1="-32" x2="160" y1="144" y2="144"/>
              <line style="fill:none;stroke:#000000;stroke-width:0.25;stroke-miterlimit:10;" x1="-32" x2="160" y1="148" y2="148"/>
              <line style="fill:none;stroke:#000000;stroke-width:0.25;stroke-miterlimit:10;" x1="-32" x2="160" y1="152" y2="152"/>
              <line style="fill:none;stroke:#000000;stroke-width:0.25;stroke-miterlimit:10;" x1="-32" x2="160" y1="156" y2="156"/>
            </g>
            <path d="M159.75-31.75v191.5h-191.5v-191.5H159.75 M160-32H-32v192h192V-32L160-32z"/>
          </g>
        </g>
        <g>
          <rect height="128" style="opacity:0.3;fill:#F44336;" width="4"/>
          <rect height="128" style="opacity:0.3;fill:#F44336;" width="4" x="124"/>
          <rect height="120" style="opacity:0.3;fill:#F44336;" transform="matrix(-1.836970e-16 1 -1 -1.836970e-16 66 -62)" width="4" x="62" y="-58"/>
          <rect height="120" style="opacity:0.3;fill:#F44336;" transform="matrix(-1.836970e-16 1 -1 -1.836970e-16 190 62)" width="4" x="62" y="66"/>
        </g>
      </g>
    </g>
  </g>
</svg>
